X:119
T:Cheap Meal
R:Reel
B:The Athole Collection
M:C|
L:1/8
K:D
B|AFED dFED|EBBA BEEd|AFED defe|dBAF ADD:|
|:f|abaf defd|ebba beef|1 abaf defe|dBAF ADD:|2 abef dgfe|
dBAF ADD||

